X:1809
T:Vals Akabat, cello
R:Vals
C: Anton Teljebäck


Z:Anton Teljebäck
M:3/4
L:1/8
K:A

|A,,2- A,,A,,- A,,2 | A,,6 |A,,2- A,,A,,- A,,2 | A,,6 |A,,2- A,,A,,- A,,2 | A,,6 | B,,2- B,,B,,- B,,2 | A,,6 |
|A,,2- A,,A,,- A,,2 | A,,6 |A,,2- A,,A,,- A,,2 | A,,6 |A,,2- A,,A,,- A,,2 | A,,6 | B,,2- B,,B,,- B,,2 | A,,6 |
|[A,,E,]2- [A,,E,][A,,E,]- [A,,E,]2 | [A,,E,]6 |[A,,E,]2- [A,,E,][A,,E,]- [A,,E,]2 | [A,,E,]6 |[A,,E,]2- [A,,E,][A,,E,]- [A,,E,]2 | [A,,E,]6 |[B,,E,]2- [B,,E,][B,,E,]- [B,,E,]2 | [A,,E,]6 
|[A,,F,]2- [A,,F,][A,,F,]- [A,,F,]2 | [A,,F,]6 |[A,,D,]2- [A,,D,][A,,D,]- [A,,D,]2 | [A,,D,]6 |[A,,E,]2- [A,,E,][A,,E,]- [A,,E,]2 | [A,,E,]6 |[B,,E,]2- [B,,E,][B,,E,]- [B,,E,]2 | [A,,E,]6 ||

|: A,,2 A,,4- | A,,6 | A,,6 | A,,6 |  B,,2 B,,(B,, B,,)B,, | E,,2 E,,4 |A,,2 A,,4- | A,,6 | A,,6 | A,,6 |  E,,2 E,,(E,, E,,)E,, | A,,2 A,,4 :|

||
|: E,,2 z2 E,,2 | z2 E,,2 z2 | E,,2 z2 E,,2 | z2 E,,2 z2 | E,,2 z2 E,,2 | z2 E,,2 z2 | E,,2 z2 E,,2 | z2 E,,2 z2 | E,,2 z2 E,,2 | z2 E,,2 z2 | E,,2 z2 E,,2 | z2 E,,2 z2 :| 








(:musicend:)

(:music:)
